X:1
T:Jesus Will Welcome Me There
T:Jesus Will Welcome Me There
T:John Robson Sweney
T:Frances Jane (Fanny) Crosby, 1892
T:Public Domain Courtesy of the Cyber Hymnal™
T:Public Domain Courtesy of the Cyber Hymnal™
C:John Robson Sweney
Z:Public Domain
Z:Courtesy of the Cyber Hymnal™
%%score ( 1 2 ) ( 3 4 ) 5
L:1/8
Q:1/4=100
M:6/8
K:F
V:1 treble 
V:2 treble 
V:3 treble 
V:4 treble 
V:5 bass 
V:1
 cdA cBE | F3 C3 | FAG Fd=B | c3- c2 z | cdA cBE | F3 G3 | ABA G!fermata!AG | F3- F2 z || %8
w: 1.~O- ver the riv- er they|call me,|Friends that are dear to my|heart; *|Soon shall I meet them in|glo- ry,|Nev- er, no nev- er to|part. *|
w: 2.~O- ver the riv- er they|call me,|Hark, ’tis their voic- es I|hear, *|Borne on the wings of the|twi- light,|Mur- mur- ing soft- ly and|clear. *|
w: 3.~O- ver the riv- er, how|love- ly,|There is no sor- row nor|night; *|There they are walk- ing with|Je- sus,|Clothed in His gar- ment of|light. *|
w: 4.~O- ver the riv- er they|call me,|Watch- ing with glad, beam- ing|eyes; *|O- ver the riv- er I’m|com- ing,|Joy- ful my spir- it re-|plies. *|
"^Refrain" FF[_EF] [DF][DB][Fd] | [Fc]3 [FA]3 | [Fc][FA][CF] [=B,D][DG][FG] | ([EG]3 [Gc]3) | %12
w: ||||
w: ||||
w: ||||
w: ||||
 [Fc][Fd][FA] [Ec][EB][CE] | [CF]3 [FG]3 | [FA][GB][FA] [EG]!fermata![FA][CG] | [CF]3- [CF]2 z |] %16
w: ||||
w: ||||
w: ||||
w: ||||
V:2
 x6 | x6 | x6 | x6 | x6 | x6 | x6 | x6 || FF x4 | x6 | x6 | x6 | x6 | x6 | x6 | x6 |] %16
V:3
 z [A,CF][A,CF] z [B,CE][B,CE] | z ([A,CE][A,CE]) z ([A,CE][A,CE]) | %2
w: ~ ~ ~ ~|~ * ~ *|
 z [A,CF][A,CF] z [=B,FG][B,FG] | z ([CEG][CEG] [CEG]3) | z [CFA][CFA] z [CEB][CEB] | %5
w: ~ ~ ~ ~|~ * *|~ ~ ~ ~|
 z ([CFA][CFA]) z ([B,DG][B,_DG]) | z [DB][CA] [B,G]!fermata![CA][B,G] | [A,CF]3- [A,CF]2 z || %8
w: ~ * ~ *|~ ~ ~ ~ ~|~ *|
 F,[A,C][A,C] B,[B,,F,][B,,B,] | [F,A,]3 [F,C]3 | [F,A,][F,C][F,A,] G,[G,=B,][D,B,] | %11
w: O- ver the riv- er to|E- den,|Home to their dwell- ing so|
 ([C,C]3 [E,B,]3) | [F,A,][F,B,][F,C] [G,C][G,C][C,B,] | [F,A,]3 (D2 _D) | %14
w: fair; *|An- gels will car- ry me|safe- ly. *|
 [C,C][C,C][C,C] [C,B,]!fermata![C,C][C,B,] | [F,A,]3- [F,A,]2 z |] %16
w: Je- sus will wel- come me|there. *|
V:4
 x6 | x6 | x6 | x6 | x6 | x6 | x6 | x6 || F, x B, x3 | x6 | x3 G, x2 | x6 | x6 | x3 B,,3 | x6 | %15
 x6 |] %16
V:5
 F,,2 z G,,2 z | A,,2 z F,,2 z | [F,,F,]2 z [D,,D,]2 z | (C,E,G, B,3) | [F,,F,]2 z [G,,G,]2 z | %5
 [A,,A,]2 z [B,,,D,,B,,]2 z | [C,,C,]2 z [C,,C,]2 z | (F,C,A,, F,,2) z || x6 | x6 | x6 | x6 | x6 | %13
 x6 | x6 | x6 |] %16

